_includes/icons/color-facebook-messenger.svg

<svg fill="#666" height="50" viewBox="0 0 48 48" width="50" xmlns="http://www.w3.org/2000/svg"><path d="m24 4c-10.5 0-19 8.101563-19 18 0 5.199219 2.300781 9.800781 6 13.101563v8.898437l7.800781-4.699219c1.597657.398438 3.398438.699219 5.199219.699219 10.5 0 19-8.101562 19-18 0-9.898437-8.5-18-19-18z" fill="#448aff"/><path d="m12 28 10-11 5 5 9-5-10 11-5-5z" fill="#fff"/></svg>

<svg xmlns="http://www.w3.org/2000/svg" viewBox="0 0 48 48" width="50" height="50" fill="#666"><path d="M 24 4 C 13.5 4 5 12.101563 5 22 C 5 27.199219 7.300781 31.800781 11 35.101563 L 11 44 L 18.800781 39.300781 C 20.398438 39.699219 22.199219 40 24 40 C 34.5 40 43 31.898438 43 22 C 43 12.101563 34.5 4 24 4 Z" fill="#448aff"/><path d="M 12 28 L 22 17 L 27 22 L 36 17 L 26 28 L 21 23 Z" fill="#fff"/></svg>
